X:138
M:6/8
L:1/8
K:F
|:fga agf|efg gfe|def fed|edc cBA|Bcd dcB|ABc f2B|AGF CFE|F3 f3:|

